X: 134
T: Xiu hebao
L: 1/8
M: 4/4
K: D
B> a f eB2B f [I:setbarnb 1]| 
e2f ed2B2 | 
B2e ee2e B | 
A> B G FE4 | 
B2B2e> a e d | 
a c B A G z G E | 
de2A B d A F | 
E8 |]

@@@ Tune index: 9008
